svg/business/wallet_5_line.svg

<?xml version="1.0" encoding="UTF-8"?>
<svg width="24px" height="24px" viewBox="0 0 24 24" version="1.1" xmlns="http://www.w3.org/2000/svg" xmlns:xlink="http://www.w3.org/1999/xlink">
    <title>wallet_5_line</title>
    <g id="页面-1" stroke="none" stroke-width="1" fill="none" fill-rule="evenodd">
        <g id="Business" transform="translate(-912.000000, -288.000000)">
            <g id="wallet_5_line" transform="translate(912.000000, 288.000000)">
                <path d="M24,0 L24,24 L0,24 L0,0 L24,0 Z M12.5934901,23.257841 L12.5819402,23.2595131 L12.5108777,23.2950439 L12.4918791,23.2987469 L12.4918791,23.2987469 L12.4767152,23.2950439 L12.4056548,23.2595131 C12.3958229,23.2563662 12.3870493,23.2590235 12.3821421,23.2649074 L12.3780323,23.275831 L12.360941,23.7031097 L12.3658947,23.7234994 L12.3769048,23.7357139 L12.4804777,23.8096931 L12.4953491,23.8136134 L12.4953491,23.8136134 L12.5071152,23.8096931 L12.6106902,23.7357139 L12.6232938,23.7196733 L12.6232938,23.7196733 L12.6266527,23.7031097 L12.609561,23.275831 C12.6075724,23.2657013 12.6010112,23.2592993 12.5934901,23.257841 L12.5934901,23.257841 Z M12.8583906,23.1452862 L12.8445485,23.1473072 L12.6598443,23.2396597 L12.6498822,23.2499052 L12.6498822,23.2499052 L12.6471943,23.2611114 L12.6650943,23.6906389 L12.6699349,23.7034178 L12.6699349,23.7034178 L12.678386,23.7104931 L12.8793402,23.8032389 C12.8914285,23.8068999 12.9022333,23.8029875 12.9078286,23.7952264 L12.9118235,23.7811639 L12.8776777,23.1665331 C12.8752882,23.1545897 12.8674102,23.1470016 12.8583906,23.1452862 L12.8583906,23.1452862 Z M12.1430473,23.1473072 C12.1332178,23.1423925 12.1221763,23.1452606 12.1156365,23.1525954 L12.1099173,23.1665331 L12.0757714,23.7811639 C12.0751323,23.7926639 12.0828099,23.8018602 12.0926481,23.8045676 L12.108256,23.8032389 L12.3092106,23.7104931 L12.3186497,23.7024347 L12.3186497,23.7024347 L12.3225043,23.6906389 L12.340401,23.2611114 L12.337245,23.2485176 L12.337245,23.2485176 L12.3277531,23.2396597 L12.1430473,23.1473072 Z" id="MingCute" fill-rule="nonzero"></path>
                <path d="M5,4 C3.34315,4 2,5.34315 2,7 L2,17 C2,18.6569 3.34315,20 5,20 L19,20 C20.6569,20 22,18.6569 22,17 L22,7 C22,5.34315 20.6569,4 19,4 L5,4 Z M20,8.17071 L20,7 C20,6.44772 19.5523,6 19,6 L5,6 C4.44772,6 4,6.44772 4,7 L4,8.17071 C4.31278,8.06015 4.64936,8 5,8 L19,8 C19.3506,8 19.6872,8.06015 20,8.17071 Z M4,11 L4,12 L9,12 C9.02837,12 9.05647,12.0012 9.08424,12.0035 C9.52767,11.9647 9.95829,12.2276 10.1135,12.6668 C10.3885,13.4449 11.1307,14 11.9999,14 C12.8692,14 13.6114,13.4449 13.8864,12.6668 C14.0416,12.2276 14.4723,11.9647 14.9157,12.0035 C14.9435,12.0012 14.9716,12 15,12 L20,12 L20,11 C20,10.4477 19.5523,10 19,10 L5,10 C4.44772,10 4,10.4477 4,11 Z M15.4645,14 C14.7734,15.1948 13.4816,16 11.9999,16 C10.5183,16 9.22652,15.1948 8.53538,14 L4,14 L4,17 C4,17.5523 4.44772,18 5,18 L19,18 C19.5523,18 20,17.5523 20,17 L20,14 L15.4645,14 Z" id="形状" fill="#09244B"></path>
            </g>
        </g>
    </g>
</svg>

<svg xmlns="http://www.w3.org/2000/svg" width="24" height="24"><g fill="none" fill-rule="evenodd"><path d="M24 0v24H0V0zM12.593 23.258l-.011.002-.071.035-.02.004-.014-.004-.071-.035c-.01-.004-.019-.001-.024.005l-.004.01-.017.428.005.02.01.013.104.074.015.004.012-.004.104-.074.012-.016.004-.017-.017-.427c-.002-.01-.009-.017-.017-.018m.265-.113-.013.002-.185.093-.01.01-.003.011.018.43.005.012.008.007.201.093c.012.004.023 0 .029-.008l.004-.014-.034-.614c-.003-.012-.01-.02-.02-.022m-.715.002a.023.023 0 0 0-.027.006l-.006.014-.034.614c0 .012.007.02.017.024l.015-.002.201-.093.01-.008.004-.011.017-.43-.003-.012-.01-.01z"/><path fill="#09244B" d="M5 4a3 3 0 0 0-3 3v10a3 3 0 0 0 3 3h14a3 3 0 0 0 3-3V7a3 3 0 0 0-3-3zm15 4.17V7a1 1 0 0 0-1-1H5a1 1 0 0 0-1 1v1.17c.313-.11.65-.17 1-.17h14c.35 0 .687.06 1 .17M4 11v1h5c.028 0 .056.001.084.004a1 1 0 0 1 1.03.663 2.001 2.001 0 0 0 3.772 0 1 1 0 0 1 1.03-.663C14.943 12 14.972 12 15 12h5v-1a1 1 0 0 0-1-1H5a1 1 0 0 0-1 1m11.465 3A3.998 3.998 0 0 1 12 16a3.998 3.998 0 0 1-3.465-2H4v3a1 1 0 0 0 1 1h14a1 1 0 0 0 1-1v-3z"/></g></svg>
